X:199
T:Roger & Molly
%%VWML:SBG-1-2--0 Wrong Index
F:http://www.vwml.org/record/SBG/1/2/
Z:Original Sibelius transcriptions by M. & S. Graebe
M:6/4
I:linebreak $
K:C
V:1 treble nm="P1"
V:1
 G2 | c3 d e2 d3 f e2 | d2 c B2 c3 G G2 | A2 F2 A2 c4 G F | E3 D C2 G4 :| G2 |$ g3 f e2 f3 e d2 | %7
 e3 d c2 d3 c B2 | c3 d e2 A2 B c2 | d2 B2 G2 c2 !fermata!e4 |$ E3 D C2 G3 F E2 | A3 G F2 c3 B A2 | %12
 G3 F E2 D4 f e | f2 d2 g2 e2 c4 | %14


